app/dist/common/images/ceres-power-plc.svg

<svg fill="none" height="18" viewBox="0 0 18 18" width="18" xmlns="http://www.w3.org/2000/svg" xmlns:xlink="http://www.w3.org/1999/xlink"><linearGradient id="a" gradientUnits="userSpaceOnUse" x1="9" x2="9" y1="0" y2="18"><stop offset="0" stop-color="#f09801"/><stop offset="1" stop-color="#feb300"/></linearGradient><path d="m0 0h18v18h-18z" fill="url(#a)"/><path clip-rule="evenodd" d="m10.0755 8.32926c-.5364 1.11879-.84527 1.6694-1.33647 2.37654-.00422 0-.00847.0001-.01276.0001-.56704.7819-1.5132 1.2941-2.58462 1.2941-1.7351 0-3.14165-1.3432-3.14165-3 0-1.65681 1.40655-3 3.14165-3 .94786 0 1.79768.40085 2.3737 1.03471l-.77557.9781c-.34395-.60486-.99423-1.01281-1.73978-1.01281-1.10456 0-2 .89543-2 2 0 1.1046.89544 2 2 2 .66682 0 1.25743-.3263 1.62082-.828.72527-1.15488.99893-1.67087 1.33931-2.34196.47783-1.07554 1.59457-1.83004 2.89587-1.83004 1.7364 0 3.144 1.34319 3.144 3h-1v-.0028.0028h-3v-1h2.7324c-.3458-.5978-.9921-1-1.7324-1-.7536 0-1.4099.41686-1.7509 1.03259zm.2928 1.82744.0005.0134-.85994.8259c.57584.6161 1.41404 1.004 2.34714 1.004 1.1104 0 2.0863-.5493 2.6457-1.3786l-.6988-.75451c-.323.67041-1.0089 1.13311-1.8029 1.13311-.6735 0-1.2693-.333-1.6317-.8433z" fill="#f0f3fa" fill-rule="evenodd"/></svg>

<!-- by TradingView --><svg width="18" height="18" viewBox="0 0 18 18" fill="none" xmlns="http://www.w3.org/2000/svg">
<rect width="18" height="18" fill="url(#paint0_linear_5825_208966)"/>
<path fill-rule="evenodd" clip-rule="evenodd" d="M10.0755 8.32926C9.5391 9.44805 9.23023 9.99866 8.73903 10.7058C8.73481 10.7058 8.73056 10.7059 8.72627 10.7059C8.15923 11.4878 7.21307 12 6.14165 12C4.40655 12 3 10.6568 3 9C3 7.34319 4.40655 6 6.14165 6C7.08951 6 7.93933 6.40085 8.51535 7.03471L7.73978 8.01281C7.39583 7.40795 6.74555 7 6 7C4.89544 7 4 7.89543 4 9C4 10.1046 4.89544 11 6 11C6.66682 11 7.25743 10.6737 7.62082 10.172C8.34609 9.01712 8.61975 8.50113 8.96013 7.83004C9.43796 6.7545 10.5547 6 11.856 6C13.5924 6 15 7.34319 15 9L14 9L14 8.9972V9H11V8H13.7324C13.3866 7.4022 12.7403 7 12 7C11.2464 7 10.5901 7.41686 10.2491 8.03259L10.0755 8.32926ZM10.3683 10.1567L10.3688 10.1701L9.50886 10.996C10.0847 11.6121 10.9229 12 11.856 12C12.9664 12 13.9423 11.4507 14.5017 10.6214L13.8029 9.86689C13.4799 10.5373 12.794 11 12 11C11.3265 11 10.7307 10.667 10.3683 10.1567Z" fill="#F0F3FA"/>
<defs>
<linearGradient id="paint0_linear_5825_208966" x1="9" y1="0" x2="9" y2="18" gradientUnits="userSpaceOnUse">
<stop stop-color="#F09801"/>
<stop offset="1" stop-color="#FEB300"/>
</linearGradient>
</defs>
</svg>
